teeny/outline/area-chart.svg

<svg width="15" height="15" viewBox="0 0 15 15" fill="none" xmlns="http://www.w3.org/2000/svg">
<path d="M0.5 14.5H0V15H0.5V14.5ZM6.5 5.5L6.9 5.2C6.80264 5.07018 6.64833 4.99569 6.48613 5.00019C6.32392 5.00469 6.17399 5.08763 6.08397 5.22265L6.5 5.5ZM9.5 9.5L9.1 9.8C9.19566 9.92754 9.3464 10.0018 9.50581 9.99997C9.66523 9.99811 9.8142 9.92035 9.90687 9.79062L9.5 9.5ZM0 0V14.5H1V0H0ZM0.5 15H15V14H0.5V15ZM2.91603 11.7774L6.91603 5.77735L6.08397 5.22265L2.08397 11.2226L2.91603 11.7774ZM6.1 5.8L9.1 9.8L9.9 9.2L6.9 5.2L6.1 5.8ZM9.90687 9.79062L14.9069 2.79062L14.0931 2.20938L9.09313 9.20938L9.90687 9.79062Z" fill="black"/>
</svg>

<svg viewBox="0 0 15 15" xmlns="http://www.w3.org/2000/svg"><path d="M.5 14.5H0v.5h.5v-.5Zm6-9l.4-.3c-.1-.13-.26-.21-.42-.2 -.17 0-.32.08-.41.22l.41.27Zm3 4l-.4.3c.09.12.24.2.4.19 .15-.01.3-.08.4-.21l-.41-.3ZM0 0v14.5h1V0H0Zm.5 15H15v-1H.5v1Zm2.41-3.23l4-6.01 -.84-.56 -4 5.99 .83.55Zm3.18-5.98l3 4 .8-.6 -3-4 -.8.6Zm3.8 3.99l5-7 -.82-.59 -5 7 .81.58Z"/></svg>
